logos/groupon.svg

<svg viewBox="0 0 300.75 132.374" xmlns="http://www.w3.org/2000/svg" xmlns:xlink="http://www.w3.org/1999/xlink">
 <path fill="#bcbec0" opacity=".2" stroke="#636466" stroke-width=".75" d="m.375.375h300v101.856l-277.861 29.732z"/>
 <linearGradient id="i" gradientUnits="userSpaceOnUse" x1="141.8384" x2="164.1086" y1="-45.4399" y2="85.3975">
  <stop stop-color="#545757"/>
  <stop stop-color="#1f2323" offset="1"/>
 </linearGradient>
 <polygon fill="url(#i)" points="292.165 94.788 29.388 122.9 10.228 8.659 292.165 8.743"/>
 <polygon fill="#fff" opacity=".3" points="14.467 80.358 .972 .805 107.84 .921 .443 .375"/>
 <linearGradient id="t" gradientUnits="userSpaceOnUse" x2="0" y1="37.1523" y2="73.1164">
  <stop stop-color="#fff"/>
  <stop stop-color="#dcddde" offset="1"/>
 </linearGradient>
 <g fill="url(#t)" stroke="#fff" stroke-width="0.25">
  <path d="m49.65 74.638c-5.577 0-10.329-2.034-14.123-6.046-3.585-3.798-5.403-8.551-5.403-14.127 0-5.269 1.998-10.023 5.776-13.749 3.782-3.727 8.444-5.617 13.857-5.617 8.196 0 15.166 4.953 18.233 12.94h-10.479c-2.358-2.521-4.885-3.713-7.861-3.713-5.59 0-10.139 4.572-10.139 10.191 0 5.905 4.643 10.894 10.139 10.894 3.667 0 6.847-1.907 8.724-5.231l.105-.187h-11.019v-7.396h21.563c.052.837.1 1.653.1 2.406 0 4.275-1.067 7.916-3.262 11.129-3.659 5.326-9.719 8.506-16.211 8.506z"/>
  <path d="m88.381 73.884l-7.519-12.662v12.662h-9.118v-38.032h12.582c4.233 0 7.165.34 9.618 2.079 3.396 2.369 5.117 5.939 5.117 10.612 0 6.156-3.206 10.719-8.576 12.208l-.172.048 9.331 13.086h-11.263zm-7.519-20.372h1.955c4.984 0 7.017-1.377 7.017-4.754 0-3.178-1.931-4.595-6.262-4.595h-2.709v9.349z"/>
  <path id="o" d="m120.345 74.583c-5.648 0-10.417-2.016-14.176-5.991-3.586-3.799-5.404-8.552-5.404-14.127 0-5.27 1.998-10.023 5.778-13.749 3.745-3.691 8.407-5.563 13.857-5.563 5.085 0 9.911 1.995 13.586 5.617 3.796 3.743 5.887 8.664 5.887 13.856 0 5.458-1.906 10.306-5.511 14.02-3.669 3.829-8.647 5.937-14.017 5.937zm.107-30.204c-5.776 0-10.3 4.478-10.3 10.193 0 5.846 4.668 10.784 10.193 10.784 5.75 0 10.086-4.636 10.086-10.784 0-5.62-4.477-10.193-9.979-10.193z"/>
  <path d="m156.312 74.475c-8.748 0-13.766-5.39-13.766-14.788v-23.835h9.171v23.458c0 4.529 1.477 6.639 4.647 6.639 3.345 0 4.971-2.171 4.971-6.639v-23.458h9.118v23.835c0 9.122-5.419 14.788-14.141 14.788z"/>
  <path d="m173.405 73.884v-38.032h12.582c4.233 0 7.165.34 9.618 2.079 3.396 2.37 5.116 5.958 5.116 10.666 0 4.833-2.195 8.934-6.023 11.252-2.367 1.419-5.336 1.704-9.358 1.704h-2.816v12.331h-9.119zm9.226-20.372h1.848c4.983 0 7.017-1.377 7.017-4.754 0-3.178-1.932-4.595-6.263-4.595h-2.602v9.349z"/>
  <use xlink:href="#o" transform="translate(101.445)"/>
  <path d="m266.979 73.884-14.458-21.608v21.608h-9.119v-38.032h8.26l14.245 21.558v-21.558h9.118v38.032z"/>
 </g>
</svg>

<svg viewBox="0 0 300.75 132.374" xmlns="http://www.w3.org/2000/svg" xmlns:xlink="http://www.w3.org/1999/xlink">
 <path fill="#bcbec0" opacity=".2" stroke="#636466" stroke-width=".75" d="M.375 .375 300.375 .375 300.375 102.231 22.514 131.963z"/>
 <linearGradient id="i" gradientUnits="userSpaceOnUse" x1="141.8384" x2="164.1086" y1="-45.4399" y2="85.3975">
  <stop stop-color="#545757"/>
  <stop stop-color="#1f2323" offset="1"/>
 </linearGradient>
 <polygon fill="url(#i)" points="292.165 94.788 29.388 122.9 10.228 8.659 292.165 8.743"/>
 <polygon fill="#fff" opacity=".3" points="14.467 80.358 .972 .805 107.84 .921 .443 .375"/>
 <linearGradient id="t" gradientUnits="userSpaceOnUse" x2="0" y1="37.1523" y2="73.1164">
  <stop stop-color="#fff"/>
  <stop stop-color="#dcddde" offset="1"/>
 </linearGradient>
 <g fill="url(#t)" stroke="#fff" stroke-width="0.25">
  <path d="m49.65 74.638c-5.577 0-10.329-2.034-14.123-6.046-3.585-3.798-5.403-8.551-5.403-14.127 0-5.269 1.998-10.023 5.776-13.749 3.782-3.727 8.444-5.617 13.857-5.617 8.196 0 15.166 4.953 18.233 12.94h-10.479c-2.358-2.521-4.885-3.713-7.861-3.713-5.59 0-10.139 4.572-10.139 10.191 0 5.905 4.643 10.894 10.139 10.894 3.667 0 6.847-1.907 8.724-5.231l.105-.187h-11.019v-7.396h21.563c.052.837.1 1.653.1 2.406 0 4.275-1.067 7.916-3.262 11.129-3.659 5.326-9.719 8.506-16.211 8.506z"/>
  <path d="m88.381 73.884l-7.519-12.662v12.662h-9.118v-38.032h12.582c4.233 0 7.165.34 9.618 2.079 3.396 2.369 5.117 5.939 5.117 10.612 0 6.156-3.206 10.719-8.576 12.208l-.172.048 9.331 13.086h-11.263zm-7.519-20.372h1.955c4.984 0 7.017-1.377 7.017-4.754 0-3.178-1.931-4.595-6.262-4.595h-2.709v9.349z"/>
  <path id="o" d="m120.345 74.583c-5.648 0-10.417-2.016-14.176-5.991-3.586-3.799-5.404-8.552-5.404-14.127 0-5.27 1.998-10.023 5.778-13.749 3.745-3.691 8.407-5.563 13.857-5.563 5.085 0 9.911 1.995 13.586 5.617 3.796 3.743 5.887 8.664 5.887 13.856 0 5.458-1.906 10.306-5.511 14.02-3.669 3.829-8.647 5.937-14.017 5.937zm.107-30.204c-5.776 0-10.3 4.478-10.3 10.193 0 5.846 4.668 10.784 10.193 10.784 5.75 0 10.086-4.636 10.086-10.784 0-5.62-4.477-10.193-9.979-10.193z"/>
  <path d="m156.312 74.475c-8.748 0-13.766-5.39-13.766-14.788v-23.835h9.171v23.458c0 4.529 1.477 6.639 4.647 6.639 3.345 0 4.971-2.171 4.971-6.639v-23.458h9.118v23.835c0 9.122-5.419 14.788-14.141 14.788z"/>
  <path d="m173.405 73.884v-38.032h12.582c4.233 0 7.165.34 9.618 2.079 3.396 2.37 5.116 5.958 5.116 10.666 0 4.833-2.195 8.934-6.023 11.252-2.367 1.419-5.336 1.704-9.358 1.704h-2.816v12.331h-9.119zm9.226-20.372h1.848c4.983 0 7.017-1.377 7.017-4.754 0-3.178-1.932-4.595-6.263-4.595h-2.602v9.349z"/>
  <use xlink:href="#o" transform="translate(101.445)"/>
  <path d="M266.979 73.884 252.521 52.276 252.521 73.884 243.402 73.884 243.402 35.852 251.662 35.852 265.907 57.41 265.907 35.852 275.025 35.852 275.025 73.884z"/>
 </g>
</svg>
